systematic/svg/Bandai - WonderSwan.svg

<?xml version="1.0" encoding="UTF-8" standalone="no"?>
<svg
   xmlns:dc="http://purl.org/dc/elements/1.1/"
   xmlns:cc="http://creativecommons.org/ns#"
   xmlns:rdf="http://www.w3.org/1999/02/22-rdf-syntax-ns#"
   xmlns:svg="http://www.w3.org/2000/svg"
   xmlns="http://www.w3.org/2000/svg"
   viewBox="0 0 320 320"
   height="320"
   width="320"
   xml:space="preserve"
   version="1.1"
   id="svg2"><metadata
     id="metadata8"><rdf:RDF><cc:Work
         rdf:about=""><dc:format>image/svg+xml</dc:format><dc:type
           rdf:resource="http://purl.org/dc/dcmitype/StillImage" /></cc:Work></rdf:RDF></metadata><defs
     id="defs6"><clipPath
       id="clipPath16"
       clipPathUnits="userSpaceOnUse"><path
         id="path18"
         d="M 0,256 256,256 256,0 0,0 0,256 Z" /></clipPath><clipPath
       id="clipPath24"
       clipPathUnits="userSpaceOnUse"><path
         id="path26"
         d="M 3.99965,200 252,200 252,56 3.99965,56 l 0,144 z" /></clipPath></defs><g
     transform="matrix(1.25,0,0,-1.25,0,320)"
     id="g10"><g
       id="g12"><g
         clip-path="url(#clipPath16)"
         id="g14"><g
           id="g20"><g
             id="g22" /><g
             id="g28"><g
               style="opacity:0.5"
               id="g30"
               clip-path="url(#clipPath24)"><g
                 id="g32"
                 transform="translate(196.0671,200)"><path
                   id="path34"
                   style="fill:#ffffff;fill-opacity:1;fill-rule:nonzero;stroke:none"
                   d="m 0,0 -128.628,0 c -12.282,0 -21.735,-0.495 -30.649,-1.604 -6.166,-0.768 -15.302,-2.805 -23.416,-11.599 -3.993,-4.327 -6.542,-11.896 -8.02,-23.818 -1.116,-8.996 -1.555,-20.26 -1.27,-32.574 0.485,-20.923 3.176,-46.202 8.097,-55.509 0.566,-1.071 1.152,-2.104 1.741,-3.072 4.997,-8.207 14.415,-13.306 24.578,-13.306 l 32.772,0 c 6.386,0 12.715,-0.219 18.814,-0.651 9.287,-0.658 26.311,-1.516 54.667,-1.866 0.031,-0.001 0.062,-0.001 0.093,-0.001 l 0.837,0 c 5.713,0 34.726,0.026 44.814,0.536 0.055,0.002 0.11,0.006 0.166,0.01 9.355,0.668 18.682,1.841 28.513,3.584 10.99,1.949 18.588,4.738 23.91,8.778 5.414,4.109 8.405,9.569 8.893,16.229 0.014,0.194 0.021,0.389 0.021,0.583 l 0,88.567 c 0,0.077 -10e-4,0.154 -0.003,0.231 C 55.372,-6.249 40.199,-3.85 30.159,-2.262 20.665,-0.761 10.518,0 0,0" /></g></g></g></g><g
           transform="translate(224.9762,189.836)"
           id="g36"><path
             id="path38"
             style="fill:#333333;fill-opacity:1;fill-rule:nonzero;stroke:none"
             d="m 0,0 c -9.549,1.51 -19.228,2.164 -28.909,2.164 l -128.628,0 c -9.909,0 -19.836,-0.32 -29.661,-1.543 -6.498,-0.809 -12.766,-2.844 -18.525,-9.085 -11.631,-12.606 -7.492,-88.566 0,-102.737 0.488,-0.922 0.988,-1.806 1.502,-2.651 3.623,-5.951 10.484,-9.466 17.745,-9.466 l 32.772,0 c 6.472,0 12.925,-0.213 19.379,-0.671 8.736,-0.619 25.608,-1.494 54.2,-1.847 2.395,-0.001 34.66,-0.009 45.242,0.525 8.249,0.59 17.311,1.642 27.686,3.482 20.197,3.582 25.65,9.909 26.221,17.713 l 0,88.567 C 18.7,-4.358 12.541,-1.983 0,0" /></g><g
           transform="translate(200.2801,172.0587)"
           id="g40"><path
             id="path42"
             style="fill:#d8d8dc;fill-opacity:1;fill-rule:nonzero;stroke:none"
             d="m 0,0 c -0.82,2.66 -3.172,4.694 -6.08,5.327 -16.519,3.596 -70.705,8.263 -114.825,6.035 -2.808,-0.142 -4.946,-2.456 -5.903,-4.913 -4.764,-12.239 -16.94,-51.286 -0.271,-97.397 1.114,-3.079 4.301,-5.111 7.808,-5.111 l 2.119,0 0,7.93 c 0,1.142 0.926,2.068 2.068,2.068 l 37.113,0 c 1.143,0 2.068,-0.925 2.069,-2.068 l 0,-7.93 c 0,0 53.044,2.734 70.177,4.222 2.875,0.25 5.398,1.849 6.632,4.266 C 5.759,-78.065 15.526,-50.348 0,0" /></g><g
           transform="translate(110.5714,80)"
           id="g44"><path
             id="path46"
             style="fill:#eceff0;fill-opacity:1;fill-rule:nonzero;stroke:none"
             d="m 0,0 6.857,0 c 1.42,0 2.572,-0.895 2.572,-2 0,-1.105 -1.152,-2 -2.572,-2 L 0,-4 c -1.42,0 -2.571,0.895 -2.571,2 0,1.105 1.151,2 2.571,2" /></g><g
           transform="translate(90.5714,80)"
           id="g48"><path
             id="path50"
             style="fill:#eceff0;fill-opacity:1;fill-rule:nonzero;stroke:none"
             d="m 0,0 6.857,0 c 1.42,0 2.572,-0.895 2.572,-2 0,-1.105 -1.152,-2 -2.572,-2 L 0,-4 c -1.42,0 -2.571,0.895 -2.571,2 0,1.105 1.151,2 2.571,2" /></g><g
           transform="translate(50.2251,176.4853)"
           id="g52"><path
             id="path54"
             style="fill:#eceff0;fill-opacity:1;fill-rule:nonzero;stroke:none"
             d="m 0,0 c -1.873,2.578 -5.452,3.853 -9.595,3.437 -2.717,-0.283 -5.996,-1.422 -7.051,-3.778 -0.305,-0.681 -0.186,-1.477 0.304,-2.038 l 6.68,-7.635 c 0.363,-0.415 0.887,-0.652 1.437,-0.652 0.55,0 1.073,0.237 1.437,0.652 l 6.68,7.635 C 0.477,-1.709 0.522,-0.721 0,0" /></g><g
           transform="translate(50.1169,149.896)"
           id="g56"><path
             id="path58"
             style="fill:#eceff0;fill-opacity:1;fill-rule:nonzero;stroke:none"
             d="m 0,0 -6.68,7.635 c -0.727,0.832 -2.147,0.832 -2.874,0 L -16.234,0 c -0.49,-0.561 -0.609,-1.357 -0.304,-2.037 1.055,-2.357 4.334,-3.495 7.051,-3.779 0.526,-0.054 1.042,-0.08 1.547,-0.08 3.471,0 6.412,1.266 8.048,3.518 C 0.63,-1.657 0.585,-0.669 0,0" /></g><g
           transform="translate(37.5305,163.4386)"
           id="g60"><path
             id="path62"
             style="fill:#eceff0;fill-opacity:1;fill-rule:nonzero;stroke:none"
             d="m 0,0 -7.634,6.681 c -0.673,0.589 -1.659,0.626 -2.378,0.108 -2.58,-1.875 -3.866,-5.462 -3.437,-9.596 0.283,-2.718 1.422,-5.997 3.778,-7.052 0.251,-0.114 0.516,-0.168 0.781,-0.168 0.453,0 0.902,0.162 1.256,0.472 L 0,-2.874 c 0.416,0.363 0.652,0.887 0.652,1.437 C 0.652,-0.887 0.416,-0.364 0,0" /></g><g
           transform="translate(59.9188,163.3715)"
           id="g64"><path
             id="path66"
             style="fill:#eceff0;fill-opacity:1;fill-rule:nonzero;stroke:none"
             d="M 0,0 C -0.283,2.718 -1.422,5.997 -3.778,7.052 -4.46,7.363 -5.256,7.24 -5.815,6.748 l -7.634,-6.681 c -0.416,-0.363 -0.653,-0.887 -0.653,-1.437 0,-0.55 0.237,-1.074 0.653,-1.437 l 7.634,-6.681 c 0.358,-0.313 0.807,-0.472 1.256,-0.472 0.393,0 0.787,0.121 1.122,0.364 C -0.857,-7.721 0.429,-4.135 0,0" /></g><g
           transform="translate(50.2253,112.4904)"
           id="g68"><path
             id="path70"
             style="fill:#eceff0;fill-opacity:1;fill-rule:nonzero;stroke:none"
             d="m 0,0 c -1.875,2.577 -5.465,3.833 -9.591,3.438 -2.72,-0.283 -6,-1.424 -7.055,-3.781 -0.306,-0.679 -0.187,-1.477 0.304,-2.036 l 6.68,-7.637 c 0.363,-0.414 0.887,-0.652 1.437,-0.652 0.549,0 1.073,0.238 1.437,0.652 l 6.68,7.637 C 0.477,-1.708 0.522,-0.723 0,0" /></g><g
           transform="translate(50.1172,85.8955)"
           id="g72"><path
             id="path74"
             style="fill:#eceff0;fill-opacity:1;fill-rule:nonzero;stroke:none"
             d="m 0,0 -6.68,7.637 c -0.727,0.828 -2.147,0.828 -2.874,0 L -16.234,0 c -0.491,-0.559 -0.61,-1.357 -0.304,-2.036 1.055,-2.357 4.335,-3.498 7.055,-3.781 0.523,-0.052 1.04,-0.079 1.545,-0.079 3.468,0 6.41,1.265 8.046,3.517 C 0.63,-1.656 0.585,-0.671 0,0" /></g><g
           transform="translate(37.5304,99.439)"
           id="g76"><path
             id="path78"
             style="fill:#eceff0;fill-opacity:1;fill-rule:nonzero;stroke:none"
             d="m 0,0 -7.634,6.682 c -0.673,0.59 -1.659,0.634 -2.379,0.108 -2.579,-1.872 -3.863,-5.459 -3.437,-9.59 0.282,-2.719 1.422,-6 3.778,-7.059 0.25,-0.112 0.517,-0.168 0.781,-0.168 0.453,0 0.903,0.16 1.257,0.474 L 0,-2.871 C 0.416,-2.51 0.652,-1.987 0.652,-1.436 0.652,-0.884 0.416,-0.362 0,0" /></g><g
           transform="translate(59.9193,99.3683)"
           id="g80"><path
             id="path82"
             style="fill:#eceff0;fill-opacity:1;fill-rule:nonzero;stroke:none"
             d="M 0,0 C -0.282,2.718 -1.422,6 -3.778,7.059 -4.455,7.361 -5.256,7.253 -5.815,6.753 L -13.45,0.071 c -0.415,-0.362 -0.652,-0.884 -0.652,-1.436 0,-0.552 0.237,-1.074 0.652,-1.435 l 7.635,-6.683 c 0.357,-0.313 0.807,-0.473 1.256,-0.473 0.393,0 0.786,0.119 1.122,0.365 C -0.857,-7.719 0.427,-4.132 0,0" /></g><g
           transform="translate(226.1172,89.8955)"
           id="g84"><path
             id="path86"
             style="fill:#eceff0;fill-opacity:1;fill-rule:nonzero;stroke:none"
             d="m 0,0 -6.68,7.637 c -0.727,0.828 -2.147,0.828 -2.874,0 L -16.234,0 c -0.491,-0.559 -0.61,-1.357 -0.304,-2.036 1.055,-2.357 4.335,-3.498 7.055,-3.781 0.523,-0.052 1.04,-0.079 1.545,-0.079 3.468,0 6.41,1.265 8.046,3.517 C 0.63,-1.656 0.585,-0.671 0,0" /></g><g
           transform="translate(235.9193,103.3683)"
           id="g88"><path
             id="path90"
             style="fill:#eceff0;fill-opacity:1;fill-rule:nonzero;stroke:none"
             d="M 0,0 C -0.282,2.718 -1.422,6 -3.778,7.059 -4.455,7.361 -5.256,7.253 -5.815,6.753 L -13.45,0.071 c -0.415,-0.362 -0.652,-0.884 -0.652,-1.436 0,-0.552 0.237,-1.074 0.652,-1.435 l 7.635,-6.683 c 0.357,-0.313 0.807,-0.473 1.256,-0.473 0.393,0 0.786,0.119 1.122,0.365 C -0.857,-7.719 0.427,-4.132 0,0" /></g><path
           id="path92"
           style="fill:#8c8c8c;fill-opacity:1;fill-rule:nonzero;stroke:none"
           d="m 80,164 108,0 0,-68 -108,0 0,68 z" /><g
           transform="translate(243.0658,174)"
           id="g94"><path
             id="path96"
             style="fill:#191919;fill-opacity:1;fill-rule:nonzero;stroke:none"
             d="m 0,0 -19.691,0 -8.441,0 c -0.516,0 -0.934,-0.446 -0.934,-0.996 l 0,-0.008 c 0,-0.55 0.418,-0.996 0.934,-0.996 l 8.441,0 19.691,0 0.934,0 0,0.996 0,0.008 L 0.934,0 0,0 Z" /></g><g
           transform="translate(223.4666,170)"
           id="g98"><path
             id="path100"
             style="fill:#191919;fill-opacity:1;fill-rule:nonzero;stroke:none"
             d="m 0,0 -6.592,0 c -0.483,0 -0.875,-0.42 -0.875,-0.937 l 0,-0.126 C -7.467,-1.58 -7.075,-2 -6.592,-2 L 0,-2 l 19.658,0 0.875,0 0,0.937 0,0.126 0,0.937 L 19.658,0 0,0 Z" /></g><g
           transform="translate(223.5714,166)"
           id="g102"><path
             id="path104"
             style="fill:#191919;fill-opacity:1;fill-rule:nonzero;stroke:none"
             d="m 0,0 -4.846,0 c -0.401,0 -0.725,-0.35 -0.725,-0.781 l 0,-0.438 C -5.571,-1.65 -5.247,-2 -4.846,-2 L 0,-2 l 19.703,0 0.726,0 0,0.781 0,0.438 0,0.781 L 19.703,0 0,0 Z" /></g><g
           transform="translate(223.6923,162)"
           id="g106"><path
             id="path108"
             style="fill:#191919;fill-opacity:1;fill-rule:nonzero;stroke:none"
             d="m 0,0 -2.773,0 c -0.508,0 -0.919,-0.446 -0.919,-0.996 l 0,-0.008 C -3.692,-1.554 -3.281,-2 -2.773,-2 L 0,-2 l 19.388,0 0.92,0 0,0.996 0,0.008 0,0.996 -0.92,0 L 0,0 Z" /></g><g
           transform="translate(222,157.0034)"
           id="g110"><path
             id="path112"
             style="fill:#191919;fill-opacity:1;fill-rule:nonzero;stroke:none"
             d="m 0,0 0,-0.007 c 0,-0.55 0.409,-0.996 0.913,-0.996 l 21.087,0 0,2 -21.087,0 C 0.409,0.997 0,0.551 0,0" /></g></g></g></g></svg>

<?xml version="1.0" encoding="UTF-8" standalone="no"?>
<svg
   xmlns:dc="http://purl.org/dc/elements/1.1/"
   xmlns:cc="http://creativecommons.org/ns#"
   xmlns:rdf="http://www.w3.org/1999/02/22-rdf-syntax-ns#"
   xmlns:svg="http://www.w3.org/2000/svg"
   xmlns="http://www.w3.org/2000/svg"
   viewBox="0 0 330.66711 192"
   height="192"
   width="330.66711"
   xml:space="preserve"
   id="svg2"
   version="1.1"><metadata
     id="metadata8"><rdf:RDF><cc:Work
         rdf:about=""><dc:format>image/svg+xml</dc:format><dc:type
           rdf:resource="http://purl.org/dc/dcmitype/StillImage" /></cc:Work></rdf:RDF></metadata><defs
     id="defs6"><clipPath
       id="clipPath18"
       clipPathUnits="userSpaceOnUse"><path
         id="path16"
         d="M 0,256 H 256 V 0 H 0 Z" /></clipPath><clipPath
       id="clipPath26"
       clipPathUnits="userSpaceOnUse"><path
         id="path24"
         d="M 3.99965,200 H 252 V 56 H 3.99965 Z" /></clipPath></defs><g
     transform="matrix(1.3333333,0,0,-1.3333333,-5.3328665,266.66666)"
     id="g10"><g
       id="g12"><g
         clip-path="url(#clipPath18)"
         id="g14"><g
           id="g20"><g
             id="g22" /><g
             id="g34"><g
               style="opacity:0.5"
               id="g32"
               clip-path="url(#clipPath26)"><g
                 id="g30"
                 transform="translate(196.0671,200)"><path
                   id="path28"
                   style="fill:#ffffff;fill-opacity:1;fill-rule:nonzero;stroke:none"
                   d="m 0,0 h -128.628 c -12.282,0 -21.735,-0.495 -30.649,-1.604 -6.166,-0.768 -15.302,-2.805 -23.416,-11.599 -3.993,-4.327 -6.542,-11.896 -8.02,-23.818 -1.116,-8.996 -1.555,-20.26 -1.27,-32.574 0.485,-20.923 3.176,-46.202 8.097,-55.509 0.566,-1.071 1.152,-2.104 1.741,-3.072 4.997,-8.207 14.415,-13.306 24.578,-13.306 h 32.772 c 6.386,0 12.715,-0.219 18.814,-0.651 9.287,-0.658 26.311,-1.516 54.667,-1.866 0.031,-0.001 0.062,-0.001 0.093,-0.001 h 0.837 c 5.713,0 34.726,0.026 44.814,0.536 0.055,0.002 0.11,0.006 0.166,0.01 9.355,0.668 18.682,1.841 28.513,3.584 10.99,1.949 18.588,4.738 23.91,8.778 5.414,4.109 8.405,9.569 8.893,16.229 0.014,0.194 0.021,0.389 0.021,0.583 v 88.567 c 0,0.077 -10e-4,0.154 -0.003,0.231 C 55.372,-6.249 40.199,-3.85 30.159,-2.262 20.665,-0.761 10.518,0 0,0" /></g></g></g></g><g
           transform="translate(224.9762,189.836)"
           id="g36"><path
             id="path38"
             style="fill:#333333;fill-opacity:1;fill-rule:nonzero;stroke:none"
             d="m 0,0 c -9.549,1.51 -19.228,2.164 -28.909,2.164 h -128.628 c -9.909,0 -19.836,-0.32 -29.661,-1.543 -6.498,-0.809 -12.766,-2.844 -18.525,-9.085 -11.631,-12.606 -7.492,-88.566 0,-102.737 0.488,-0.922 0.988,-1.806 1.502,-2.651 3.623,-5.951 10.484,-9.466 17.745,-9.466 h 32.772 c 6.472,0 12.925,-0.213 19.379,-0.671 8.736,-0.619 25.608,-1.494 54.2,-1.847 2.395,-0.001 34.66,-0.009 45.242,0.525 8.249,0.59 17.311,1.642 27.686,3.482 20.197,3.582 25.65,9.909 26.221,17.713 v 88.567 C 18.7,-4.358 12.541,-1.983 0,0" /></g><g
           transform="translate(200.2801,172.0587)"
           id="g40"><path
             id="path42"
             style="fill:#d8d8dc;fill-opacity:1;fill-rule:nonzero;stroke:none"
             d="m 0,0 c -0.82,2.66 -3.172,4.694 -6.08,5.327 -16.519,3.596 -70.705,8.263 -114.825,6.035 -2.808,-0.142 -4.946,-2.456 -5.903,-4.913 -4.764,-12.239 -16.94,-51.286 -0.271,-97.397 1.114,-3.079 4.301,-5.111 7.808,-5.111 h 2.119 v 7.93 c 0,1.142 0.926,2.068 2.068,2.068 h 37.113 c 1.143,0 2.068,-0.925 2.069,-2.068 v -7.93 c 0,0 53.044,2.734 70.177,4.222 2.875,0.25 5.398,1.849 6.632,4.266 C 5.759,-78.065 15.526,-50.348 0,0" /></g><g
           transform="translate(110.5714,80)"
           id="g44"><path
             id="path46"
             style="fill:#eceff0;fill-opacity:1;fill-rule:nonzero;stroke:none"
             d="m 0,0 h 6.857 c 1.42,0 2.572,-0.895 2.572,-2 0,-1.105 -1.152,-2 -2.572,-2 H 0 c -1.42,0 -2.571,0.895 -2.571,2 0,1.105 1.151,2 2.571,2" /></g><g
           transform="translate(90.5714,80)"
           id="g48"><path
             id="path50"
             style="fill:#eceff0;fill-opacity:1;fill-rule:nonzero;stroke:none"
             d="m 0,0 h 6.857 c 1.42,0 2.572,-0.895 2.572,-2 0,-1.105 -1.152,-2 -2.572,-2 H 0 c -1.42,0 -2.571,0.895 -2.571,2 0,1.105 1.151,2 2.571,2" /></g><g
           transform="translate(50.2251,176.4853)"
           id="g52"><path
             id="path54"
             style="fill:#eceff0;fill-opacity:1;fill-rule:nonzero;stroke:none"
             d="m 0,0 c -1.873,2.578 -5.452,3.853 -9.595,3.437 -2.717,-0.283 -5.996,-1.422 -7.051,-3.778 -0.305,-0.681 -0.186,-1.477 0.304,-2.038 l 6.68,-7.635 c 0.363,-0.415 0.887,-0.652 1.437,-0.652 0.55,0 1.073,0.237 1.437,0.652 l 6.68,7.635 C 0.477,-1.709 0.522,-0.721 0,0" /></g><g
           transform="translate(50.1169,149.896)"
           id="g56"><path
             id="path58"
             style="fill:#eceff0;fill-opacity:1;fill-rule:nonzero;stroke:none"
             d="m 0,0 -6.68,7.635 c -0.727,0.832 -2.147,0.832 -2.874,0 L -16.234,0 c -0.49,-0.561 -0.609,-1.357 -0.304,-2.037 1.055,-2.357 4.334,-3.495 7.051,-3.779 0.526,-0.054 1.042,-0.08 1.547,-0.08 3.471,0 6.412,1.266 8.048,3.518 C 0.63,-1.657 0.585,-0.669 0,0" /></g><g
           transform="translate(37.5305,163.4386)"
           id="g60"><path
             id="path62"
             style="fill:#eceff0;fill-opacity:1;fill-rule:nonzero;stroke:none"
             d="m 0,0 -7.634,6.681 c -0.673,0.589 -1.659,0.626 -2.378,0.108 -2.58,-1.875 -3.866,-5.462 -3.437,-9.596 0.283,-2.718 1.422,-5.997 3.778,-7.052 0.251,-0.114 0.516,-0.168 0.781,-0.168 0.453,0 0.902,0.162 1.256,0.472 L 0,-2.874 c 0.416,0.363 0.652,0.887 0.652,1.437 C 0.652,-0.887 0.416,-0.364 0,0" /></g><g
           transform="translate(59.9188,163.3715)"
           id="g64"><path
             id="path66"
             style="fill:#eceff0;fill-opacity:1;fill-rule:nonzero;stroke:none"
             d="M 0,0 C -0.283,2.718 -1.422,5.997 -3.778,7.052 -4.46,7.363 -5.256,7.24 -5.815,6.748 l -7.634,-6.681 c -0.416,-0.363 -0.653,-0.887 -0.653,-1.437 0,-0.55 0.237,-1.074 0.653,-1.437 l 7.634,-6.681 c 0.358,-0.313 0.807,-0.472 1.256,-0.472 0.393,0 0.787,0.121 1.122,0.364 C -0.857,-7.721 0.429,-4.135 0,0" /></g><g
           transform="translate(50.2253,112.4904)"
           id="g68"><path
             id="path70"
             style="fill:#eceff0;fill-opacity:1;fill-rule:nonzero;stroke:none"
             d="m 0,0 c -1.875,2.577 -5.465,3.833 -9.591,3.438 -2.72,-0.283 -6,-1.424 -7.055,-3.781 -0.306,-0.679 -0.187,-1.477 0.304,-2.036 l 6.68,-7.637 c 0.363,-0.414 0.887,-0.652 1.437,-0.652 0.549,0 1.073,0.238 1.437,0.652 l 6.68,7.637 C 0.477,-1.708 0.522,-0.723 0,0" /></g><g
           transform="translate(50.1172,85.8955)"
           id="g72"><path
             id="path74"
             style="fill:#eceff0;fill-opacity:1;fill-rule:nonzero;stroke:none"
             d="m 0,0 -6.68,7.637 c -0.727,0.828 -2.147,0.828 -2.874,0 L -16.234,0 c -0.491,-0.559 -0.61,-1.357 -0.304,-2.036 1.055,-2.357 4.335,-3.498 7.055,-3.781 0.523,-0.052 1.04,-0.079 1.545,-0.079 3.468,0 6.41,1.265 8.046,3.517 C 0.63,-1.656 0.585,-0.671 0,0" /></g><g
           transform="translate(37.5304,99.439)"
           id="g76"><path
             id="path78"
             style="fill:#eceff0;fill-opacity:1;fill-rule:nonzero;stroke:none"
             d="m 0,0 -7.634,6.682 c -0.673,0.59 -1.659,0.634 -2.379,0.108 -2.579,-1.872 -3.863,-5.459 -3.437,-9.59 0.282,-2.719 1.422,-6 3.778,-7.059 0.25,-0.112 0.517,-0.168 0.781,-0.168 0.453,0 0.903,0.16 1.257,0.474 L 0,-2.871 C 0.416,-2.51 0.652,-1.987 0.652,-1.436 0.652,-0.884 0.416,-0.362 0,0" /></g><g
           transform="translate(59.9193,99.3683)"
           id="g80"><path
             id="path82"
             style="fill:#eceff0;fill-opacity:1;fill-rule:nonzero;stroke:none"
             d="M 0,0 C -0.282,2.718 -1.422,6 -3.778,7.059 -4.455,7.361 -5.256,7.253 -5.815,6.753 L -13.45,0.071 c -0.415,-0.362 -0.652,-0.884 -0.652,-1.436 0,-0.552 0.237,-1.074 0.652,-1.435 l 7.635,-6.683 c 0.357,-0.313 0.807,-0.473 1.256,-0.473 0.393,0 0.786,0.119 1.122,0.365 C -0.857,-7.719 0.427,-4.132 0,0" /></g><g
           transform="translate(226.1172,89.8955)"
           id="g84"><path
             id="path86"
             style="fill:#eceff0;fill-opacity:1;fill-rule:nonzero;stroke:none"
             d="m 0,0 -6.68,7.637 c -0.727,0.828 -2.147,0.828 -2.874,0 L -16.234,0 c -0.491,-0.559 -0.61,-1.357 -0.304,-2.036 1.055,-2.357 4.335,-3.498 7.055,-3.781 0.523,-0.052 1.04,-0.079 1.545,-0.079 3.468,0 6.41,1.265 8.046,3.517 C 0.63,-1.656 0.585,-0.671 0,0" /></g><g
           transform="translate(235.9193,103.3683)"
           id="g88"><path
             id="path90"
             style="fill:#eceff0;fill-opacity:1;fill-rule:nonzero;stroke:none"
             d="M 0,0 C -0.282,2.718 -1.422,6 -3.778,7.059 -4.455,7.361 -5.256,7.253 -5.815,6.753 L -13.45,0.071 c -0.415,-0.362 -0.652,-0.884 -0.652,-1.436 0,-0.552 0.237,-1.074 0.652,-1.435 l 7.635,-6.683 c 0.357,-0.313 0.807,-0.473 1.256,-0.473 0.393,0 0.786,0.119 1.122,0.365 C -0.857,-7.719 0.427,-4.132 0,0" /></g><path
           id="path92"
           style="fill:#8c8c8c;fill-opacity:1;fill-rule:nonzero;stroke:none"
           d="M 80,164 H 188 V 96 H 80 Z" /><g
           transform="translate(243.0658,174)"
           id="g94"><path
             id="path96"
             style="fill:#191919;fill-opacity:1;fill-rule:nonzero;stroke:none"
             d="m 0,0 h -19.691 -8.441 c -0.516,0 -0.934,-0.446 -0.934,-0.996 v -0.008 c 0,-0.55 0.418,-0.996 0.934,-0.996 H -19.691 0 0.934 V -1.004 -0.996 0 Z" /></g><g
           transform="translate(223.4666,170)"
           id="g98"><path
             id="path100"
             style="fill:#191919;fill-opacity:1;fill-rule:nonzero;stroke:none"
             d="M 0,0 H -6.592 C -7.075,0 -7.467,-0.42 -7.467,-0.937 V -1.063 C -7.467,-1.58 -7.075,-2 -6.592,-2 H 0 19.658 20.533 V -1.063 -0.937 0 h -0.875 z" /></g><g
           transform="translate(223.5714,166)"
           id="g102"><path
             id="path104"
             style="fill:#191919;fill-opacity:1;fill-rule:nonzero;stroke:none"
             d="M 0,0 H -4.846 C -5.247,0 -5.571,-0.35 -5.571,-0.781 V -1.219 C -5.571,-1.65 -5.247,-2 -4.846,-2 H 0 19.703 20.429 V -1.219 -0.781 0 h -0.726 z" /></g><g
           transform="translate(223.6923,162)"
           id="g106"><path
             id="path108"
             style="fill:#191919;fill-opacity:1;fill-rule:nonzero;stroke:none"
             d="M 0,0 H -2.773 C -3.281,0 -3.692,-0.446 -3.692,-0.996 V -1.004 C -3.692,-1.554 -3.281,-2 -2.773,-2 H 0 19.388 20.308 V -1.004 -0.996 0 h -0.92 z" /></g><g
           transform="translate(222,157.0034)"
           id="g110"><path
             id="path112"
             style="fill:#191919;fill-opacity:1;fill-rule:nonzero;stroke:none"
             d="m 0,0 v -0.007 c 0,-0.55 0.409,-0.996 0.913,-0.996 H 22 v 2 H 0.913 C 0.409,0.997 0,0.551 0,0" /></g></g></g></g></svg>
